X: 9
T: No_106_Song_of_the_Watchers_(a).krn
N: Derived from No_106_Song_of_the_Watchers_(a).krn
%%abc-version 2.0
%%abcx-abcm2ps-target-version 5.9.1 (29 Sep 2008)
%%abc-creator hum2abc beta
%%abcx-conversion-date 2019/03/15 08:37:56
%%humdrum-veritas 1819902206
%%humdrum-veritas-data 1670505817
%%linebreak <none>
%%barnumbers 0
L: 1/4
M: 3/4
K: Eb clef=bass
[K:clef=bass][M:3/4]C3 | 
B,3/G,/ C/B,/ | 
C2G, | 
F,2z | 
B,2G, | 
G,2B,/G,/ | 
B,2F, | 
E,/C,/C,C, | 
C,E,E,/C,/ | 
E,2C, | 
B,,G,,C,3//E,// | 
E,3/C,/C, | 
C,3 |]  



